X:23
T:Tit for Tat
R:Jig
O:England
M:6/8
A:Lancashire
B:Winder
K:D
d2d A2A | BdB A2A | dcd e2f | gag f2e | \
d2d A2A | BdB A2A | dcd efg | f2e d3 :|*
 |:fga a2a | fga a2a | fga b2a | g2f e2d | \
fga a2a | fga a2a | fga b2a | g2f e3 :|**
